src/assets/icons/settingsWindow.svg

<svg id="Layer_1" viewBox="0 0 24 24" xmlns="http://www.w3.org/2000/svg" data-name="Layer 1"><path d="m19.5 0h-15c-2.481 0-4.5 2.019-4.5 4.5v8c0 .276.224.5.5.5s.5-.224.5-.5v-4.5h22v3.5c0 .276.224.5.5.5s.5-.224.5-.5v-7c0-2.481-2.019-4.5-4.5-4.5zm-18.5 7v-2.5c0-1.93 1.57-3.5 3.5-3.5h15c1.93 0 3.5 1.57 3.5 3.5v2.5zm4-3c0 .552-.448 1-1 1s-1-.448-1-1 .448-1 1-1 1 .448 1 1zm3 0c0 .552-.448 1-1 1s-1-.448-1-1 .448-1 1-1 1 .448 1 1zm3 0c0 .552-.448 1-1 1s-1-.448-1-1 .448-1 1-1 1 .448 1 1zm-5 12c-1.103 0-2 .897-2 2s.897 2 2 2 2-.897 2-2-.897-2-2-2zm0 3c-.552 0-1-.448-1-1s.448-1 1-1 1 .448 1 1-.448 1-1 1zm5.336-2.891c.102-.388.046-.792-.156-1.137-.202-.346-.526-.593-.914-.694-.39-.102-.793-.046-1.138.156l-.225.131c-.41-.344-.886-.612-1.403-.794v-.271c0-.827-.673-1.5-1.5-1.5s-1.5.673-1.5 1.5v.271c-.518.182-.993.45-1.403.794l-.225-.131c-.345-.202-.748-.258-1.138-.156-.388.102-.712.349-.914.693-.202.346-.258.75-.156 1.138s.348.712.694.915l.233.137c-.062.296-.092.568-.092.839s.029.543.092.839l-.234.137c-.346.203-.592.527-.693.915-.102.388-.046.792.156 1.137.202.346.526.593.914.694.39.103.793.047 1.138-.156l.225-.131c.41.344.886.612 1.403.794v.271c0 .827.673 1.5 1.5 1.5s1.5-.673 1.5-1.5v-.271c.518-.182.993-.45 1.403-.794l.225.131c.345.203.748.259 1.138.156.388-.102.712-.349.914-.693.202-.346.258-.75.156-1.138s-.348-.712-.694-.915l-.233-.137c.062-.296.092-.568.092-.839s-.029-.543-.092-.839l.234-.137c.346-.203.592-.527.693-.915zm-1.984.944c.102.358.148.658.148.946s-.047.588-.148.946c-.062.219.032.452.229.567l.556.325c.238.14.319.446.18.685-.131.235-.455.321-.685.179l-.542-.316c-.194-.114-.445-.082-.606.079-.432.435-.988.749-1.608.909-.221.058-.375.257-.375.484v.642c0 .275-.225.5-.5.5s-.5-.225-.5-.5v-.642c0-.228-.154-.427-.375-.484-.62-.16-1.177-.475-1.608-.909-.097-.097-.225-.147-.354-.147-.087 0-.174.022-.252.068l-.542.316c-.234.14-.552.057-.685-.18-.14-.237-.059-.544.179-.684l.557-.325c.197-.115.291-.349.229-.567-.102-.358-.148-.658-.148-.946s.047-.588.148-.946c.062-.219-.032-.452-.229-.567l-.556-.325c-.238-.14-.319-.446-.18-.685.131-.236.456-.318.685-.179l.542.316c.195.114.445.083.606-.079.432-.435.988-.749 1.608-.909.221-.058.375-.257.375-.484v-.642c0-.275.225-.5.5-.5s.5.225.5.5v.642c0 .228.154.427.375.484.62.16 1.177.475 1.608.909.161.162.412.193.606.079l.542-.316c.233-.141.553-.057.685.18.14.237.059.544-.179.684l-.557.325c-.197.115-.291.349-.229.567zm11.848.754 1.938-.969c.515-.258.84-.795.828-1.366-.009-.576-.354-1.103-.923-1.357l-8.784-3.023c-.634-.213-1.318-.053-1.782.415-.479.479-.629 1.157-.402 1.815 0 0 3.021 8.778 3.026 8.793.238.526.771.872 1.366.881.571 0 1.085-.317 1.342-.829l.983-1.968 2.311 2.302c.631.656 1.774.655 2.401 0 .658-.631.657-1.773-.002-2.401l-2.303-2.291zm1.597 3.986c-.26.259-.725.263-.988-.002l-2.801-2.79c-.112-.113-.271-.169-.434-.139-.158.025-.294.126-.366.27l-1.293 2.586c-.085.171-.257.277-.439.277-.195-.003-.371-.11-.454-.275l-3.001-8.725c-.101-.292-.041-.577.166-.783.195-.198.486-.265.751-.174l8.737 3.004c.175.079.289.254.292.447.004.19-.104.368-.275.454l-2.561 1.279c-.144.072-.244.209-.27.368-.026.158.026.32.141.434l2.796 2.782c.131.131.203.306.203.492s-.072.362-.204.494z"/></svg>

<svg width="24" height="24" viewBox="0 0 24 24" fill="none" xmlns="http://www.w3.org/2000/svg">
<path d="M19.5 0H4.5C2.019 0 0 2.019 0 4.5V12.5C0 12.776 0.224 13 0.5 13C0.776 13 1 12.776 1 12.5V8H23V11.5C23 11.776 23.224 12 23.5 12C23.776 12 24 11.776 24 11.5V4.5C24 2.019 21.981 0 19.5 0ZM1 7V4.5C1 2.57 2.57 1 4.5 1H19.5C21.43 1 23 2.57 23 4.5V7H1ZM5 4C5 4.552 4.552 5 4 5C3.448 5 3 4.552 3 4C3 3.448 3.448 3 4 3C4.552 3 5 3.448 5 4ZM8 4C8 4.552 7.552 5 7 5C6.448 5 6 4.552 6 4C6 3.448 6.448 3 7 3C7.552 3 8 3.448 8 4ZM11 4C11 4.552 10.552 5 10 5C9.448 5 9 4.552 9 4C9 3.448 9.448 3 10 3C10.552 3 11 3.448 11 4ZM6 16C4.897 16 4 16.897 4 18C4 19.103 4.897 20 6 20C7.103 20 8 19.103 8 18C8 16.897 7.103 16 6 16ZM6 19C5.448 19 5 18.552 5 18C5 17.448 5.448 17 6 17C6.552 17 7 17.448 7 18C7 18.552 6.552 19 6 19ZM11.336 16.109C11.438 15.721 11.382 15.317 11.18 14.972C10.978 14.626 10.654 14.379 10.266 14.278C9.876 14.176 9.473 14.232 9.128 14.434L8.903 14.565C8.493 14.221 8.017 13.953 7.5 13.771V13.5C7.5 12.673 6.827 12 6 12C5.173 12 4.5 12.673 4.5 13.5V13.771C3.982 13.953 3.507 14.221 3.097 14.565L2.872 14.434C2.527 14.232 2.124 14.176 1.734 14.278C1.346 14.38 1.022 14.627 0.82 14.971C0.618 15.317 0.562 15.721 0.664 16.109C0.766 16.497 1.012 16.821 1.358 17.024L1.591 17.161C1.529 17.457 1.499 17.729 1.499 18C1.499 18.271 1.528 18.543 1.591 18.839L1.357 18.976C1.011 19.179 0.765 19.503 0.664 19.891C0.562 20.279 0.618 20.683 0.82 21.028C1.022 21.374 1.346 21.621 1.734 21.722C2.124 21.825 2.527 21.769 2.872 21.566L3.097 21.435C3.507 21.779 3.983 22.047 4.5 22.229V22.5C4.5 23.327 5.173 24 6 24C6.827 24 7.5 23.327 7.5 22.5V22.229C8.018 22.047 8.493 21.779 8.903 21.435L9.128 21.566C9.473 21.769 9.876 21.825 10.266 21.722C10.654 21.62 10.978 21.373 11.18 21.029C11.382 20.683 11.438 20.279 11.336 19.891C11.234 19.503 10.988 19.179 10.642 18.976L10.409 18.839C10.471 18.543 10.501 18.271 10.501 18C10.501 17.729 10.472 17.457 10.409 17.161L10.643 17.024C10.989 16.821 11.235 16.497 11.336 16.109ZM9.352 17.053C9.454 17.411 9.5 17.711 9.5 17.999C9.5 18.287 9.453 18.587 9.352 18.945C9.29 19.164 9.384 19.397 9.581 19.512L10.137 19.837C10.375 19.977 10.456 20.283 10.317 20.522C10.186 20.757 9.862 20.843 9.632 20.701L9.09 20.385C8.896 20.271 8.645 20.303 8.484 20.464C8.052 20.899 7.496 21.213 6.876 21.373C6.655 21.431 6.501 21.63 6.501 21.857V22.499C6.501 22.774 6.276 22.999 6.001 22.999C5.726 22.999 5.501 22.774 5.501 22.499V21.857C5.501 21.629 5.347 21.43 5.126 21.373C4.506 21.213 3.949 20.898 3.518 20.464C3.421 20.367 3.293 20.317 3.164 20.317C3.077 20.317 2.99 20.339 2.912 20.385L2.37 20.701C2.136 20.841 1.818 20.758 1.685 20.521C1.545 20.284 1.626 19.977 1.864 19.837L2.421 19.512C2.618 19.397 2.712 19.163 2.65 18.945C2.548 18.587 2.502 18.287 2.502 17.999C2.502 17.711 2.549 17.411 2.65 17.053C2.712 16.834 2.618 16.601 2.421 16.486L1.865 16.161C1.627 16.021 1.546 15.715 1.685 15.476C1.816 15.24 2.141 15.158 2.37 15.297L2.912 15.613C3.107 15.727 3.357 15.696 3.518 15.534C3.95 15.099 4.506 14.785 5.126 14.625C5.347 14.567 5.501 14.368 5.501 14.141V13.499C5.501 13.224 5.726 12.999 6.001 12.999C6.276 12.999 6.501 13.224 6.501 13.499V14.141C6.501 14.369 6.655 14.568 6.876 14.625C7.496 14.785 8.053 15.1 8.484 15.534C8.645 15.696 8.896 15.727 9.09 15.613L9.632 15.297C9.865 15.156 10.185 15.24 10.317 15.477C10.457 15.714 10.376 16.021 10.138 16.161L9.581 16.486C9.384 16.601 9.29 16.835 9.352 17.053ZM21.2 17.807L23.138 16.838C23.653 16.58 23.978 16.043 23.966 15.472C23.957 14.896 23.612 14.369 23.043 14.115L14.259 11.092C13.625 10.879 12.941 11.039 12.477 11.507C11.998 11.986 11.848 12.664 12.075 13.322C12.075 13.322 15.096 22.1 15.101 22.115C15.339 22.641 15.872 22.987 16.467 22.996C17.038 22.996 17.552 22.679 17.809 22.167L18.792 20.199L21.103 22.501C21.734 23.157 22.877 23.156 23.504 22.501C24.162 21.87 24.161 20.728 23.502 20.1L21.199 17.809L21.2 17.807ZM22.797 21.793C22.537 22.052 22.072 22.056 21.809 21.791L19.008 19.001C18.896 18.888 18.737 18.832 18.574 18.862C18.416 18.887 18.28 18.988 18.208 19.132L16.915 21.718C16.83 21.889 16.658 21.995 16.476 21.995C16.281 21.992 16.105 21.885 16.022 21.72L13.021 12.995C12.92 12.703 12.98 12.418 13.187 12.212C13.382 12.014 13.673 11.947 13.938 12.038L22.675 15.042C22.85 15.121 22.964 15.296 22.967 15.489C22.971 15.679 22.863 15.857 22.692 15.943L20.131 17.222C19.987 17.294 19.887 17.431 19.861 17.59C19.835 17.748 19.887 17.91 20.002 18.024L22.798 20.806C22.929 20.937 23.001 21.112 23.001 21.298C23.001 21.484 22.929 21.661 22.797 21.793Z" fill="#787891"/>
</svg>
